X:1
T:Simple Gifts
C:Joseph Brackett, 1848
M:4/4
L:1/8
Q:1/4=96
K:C
|: C4 E2 G2 | c4 B2 G2 | A2 G2 E2 C2 | D4 D4 |
   E2 G2 c2 e2 | d4 c2 B2 | G2 A2 B2 G2 | c8 :|
|: e4 d2 c2 | B2 G2 A2 B2 | c2 B2 A2 G2 | c8 |
   G4 E2 C2 | D2 E2 F2 G2 | A4 G4 | C8 :|
